icons/svg/cellphone-dock.svg

﻿<?xml version="1.0" encoding="utf-8"?>
<!DOCTYPE svg PUBLIC "-//W3C//DTD SVG 1.1//EN" "http://www.w3.org/Graphics/SVG/1.1/DTD/svg11.dtd">
<svg xmlns="http://www.w3.org/2000/svg" xmlns:xlink="http://www.w3.org/1999/xlink" version="1.1" baseProfile="full" width="24" height="24" viewBox="0 0 24.00 24.00" enable-background="new 0 0 24.00 24.00" xml:space="preserve">
	<path fill="#000000" fill-opacity="1" stroke-width="0.2" stroke-linejoin="round" d="M 15.9994,14.9981L 7.9994,14.9981L 7.9994,4.99807L 15.9994,4.99807M 15.9994,1.00808L 7.9994,0.998068C 6.8944,0.998068 5.9994,1.89406 5.9994,2.99807L 5.9994,16.9981C 5.9994,18.1021 6.8944,18.9981 7.9994,18.9981L 15.9994,18.9981C 17.1034,18.9981 17.9994,18.1021 17.9994,16.9981L 17.9994,2.99807C 17.9994,1.89406 17.1034,1.00808 15.9994,1.00808 Z M 7.9994,22.9981L 15.9994,22.9981L 15.9994,20.9981L 7.9994,20.9981L 7.9994,22.9981 Z "/>
</svg>

<svg xmlns="http://www.w3.org/2000/svg" version="1.1" baseProfile="full" width="24" height="24" viewBox="0 0 24.00 24.00" xml:space="preserve"><path fill="#000" fill-opacity="1" stroke-width=".2" stroke-linejoin="round" d="M16 14.998H8v-10h8m0-3.99l-8-.01c-1.106 0-2 .896-2 2v14c0 1.104.894 2 2 2h8c1.103 0 2-.896 2-2v-14c0-1.104-.897-1.99-2-1.99zm-8 21.99h8v-2H8v2z"/></svg>
